!!!COA:	Josquin des Prez
!!!CDT:	~1450-1521/08/27
!!!OPR:	Missa Veni sancte spiritus
!!!ONM:	1
!!!OTL:	Kyrie
!!!AGN:	Mass; Kyrie
!!!SCT:	NJE 4.6
!!!SCA:	New Josquin Edition 4.6
!!!voices:	5
!!!voices-OPR:	5
**kern	**kern	**kern	**kern	**kern
*staff5	*staff4	*staff3	*staff2	*staff1
*Ivox	*Ivox	*Ivox	*Ivox	*Ivox
*I"Bassus	*I"Vagans	*I"Tenor	*I"Altus	*I"Superius
*I'B	*I'V	*I'T	*I'A	*I'S
*>[A,B,C]	*>[A,B,C]	*>[A,B,C]	*>[A,B,C]	*>[A,B,C]
*>A	*>A	*>A	*>A	*>A
*clefF4	*clefGv2	*clefGv2	*clefGv2	*clefG2
*k[]	*k[]	*k[]	*k[]	*k[]
*M2/1	*M2/1	*M2/1	*M2/1	*M2/1
*met(C|)	*met(C|)	*met(C|)	*met(C|)	*met(C|)
=1-	=1-	=1-	=1-	=1-
0r	1.G	0r	1.G	[0g
.	2F/	.	2A/	.
=2	=2	=2	=2	=2
0r	2E/	0r	1B	0g]
.	2D/	.	.	.
.	[1C	.	[1c	.
=3	=3	=3	=3	=3
0r	1C]	0r	2c\]	1e
.	.	.	2A/	.
.	[1D	.	1A	[1f
=4	=4	=4	=4	=4
0r	1D]	0r	2r	2f/]
.	.	.	1B	2d/
.	1G	.	.	1d
.	.	.	2G/	.
=5	=5	=5	=5	=5
0r	2F/	0r	2A/	2.f/
.	2.D/	.	1d	.
.	.	.	.	4e/
.	.	.	.	4f/
.	4E/	.	.	4g/
.	[2F/	.	2c\	[2a/
=6	=6	=6	=6	=6
0r	2F/]	0r	2d\	2a/]
.	2G/	.	2B\	1g
.	1D	.	1A	.
.	.	.	.	2f#i/
=7	=7	=7	=7	=7
1.GG	1r	[0G	0B	1.g
.	1D	.	.	.
4AA/	.	.	.	2f/
4BB/	.	.	.	.
=8	=8	=8	=8	=8
1C	2E/	0G]	2G/	1e
.	2C/	.	1c	.
1GG	1G	.	.	1d
.	.	.	2B\	.
=9	=9	=9	=9	=9
0AA	0C	1E	1c	0c
.	.	[1F	1A	.
=10	=10	=10	=10	=10
2.D\	0F	2F/]	[0A	0r
.	.	2D/	.	.
4E\	.	.	.	.
4F\	.	1D	.	.
4G\	.	.	.	.
[2A\	.	.	.	.
=11	=11	=11	=11	=11
2A\]	1D	2.F/	0A]	0r
1D	.	.	.	.
.	.	4E/	.	.
.	2r	4F/	.	.
.	.	4G/	.	.
2C/	2E/	[2A/	.	.
=12	=12	=12	=12	=12
2D\	2F/	4A/]	1r	2r
.	.	4G/	.	.
2BB/	1D	1G	.	2g/
1AA	.	.	2r	2a/
.	2C/	2F#i/	2A/	2cc\
=13	=13	=13	=13	=13
0GG	0D	0G	2.B\	2b\
.	.	.	.	2.g/
.	.	.	4c\	.
.	.	.	[1d	.
.	.	.	.	4a/
.	.	.	.	4b\
.	.	.	.	4cc\
=14	=14	=14	=14	=14
0D	0F	0r	2d\]	2b\
.	.	.	4c\	1a
.	.	.	4B\	.
.	.	.	2A/	.
.	.	.	2B\	4g/
.	.	.	.	4f/
=15	=15	=15	=15	=15
1C	2G/	[0G	1c	0e
.	1c	.	.	.
[1E	.	.	[1g	.
.	4B\	.	.	.
.	4A/	.	.	.
=16	=16	=16	=16	=16
2E\]	1B	0G]	2g\]	1r
4D\	.	.	4f\	.
4C/	.	.	4e\	.
1BB	1r	.	1d	1g
=17	=17	=17	=17	=17
1.AA	[0e	[0A	1.c	[0a
2BB/	.	.	2d\	.
=18	=18	=18	=18	=18
1C	1e]	0A]	1e	1a]
1D	2d\	.	1f	1f
.	[2d\	.	.	.
=19	=19	=19	=19	=19
2GG/	4d\]	0G	1g	1.g
.	4c\	.	.	.
2.E\	4B\	.	.	.
.	4A/	.	.	.
.	1G	.	1e	.
4D\	.	.	.	.
2C/	.	.	.	2a/
=20	=20	=20	=20	=20
2BB/	2r	0G	2d\	2b\
2C/	2.c\	.	2c\	2.cc\
1GG	.	.	2d\	.
.	8B/L	.	.	4b\
.	8A/J	.	.	.
.	2B\	.	[2g\	2b\
=21	=21	=21	=21	=21
1AA	1c	0r	2g\]	2.a/
.	.	.	2f\	.
.	.	.	.	8g/L
.	.	.	.	8f/J
1GG	[1d	.	1g	1g
=22	=22	=22	=22	=22
0D	2d\]	0r	[0f	0f
.	4c\	.	.	.
.	4B\	.	.	.
.	[1A	.	.	.
=23	=23	=23	=23	=23
0F	1A]	0A	0f]	1r
.	1D	.	.	1a
=24	=24	=24	=24	=24
2.C/	1E	0c	2r	2.g/
.	.	.	2.e\	.
4D\	.	.	.	4f/
2E\	1C	.	.	2g/
.	.	.	4d\	.
[2F\	.	.	4c\	2a/
.	.	.	4A/	.
=25	=25	=25	=25	=25
2F\]	0r	1G	1B	1g
2E\	.	.	.	.
2.F\	.	[1A	4A/	1f
.	.	.	4B\	.
.	.	.	4c\	.
8E\L	.	.	4d\	.
8D\J	.	.	.	.
=26	=26	=26	=26	=26
2C/	0r	1A]	2e\	2r
2D\	.	.	2d\	2f/
1E	.	1G	2B\	1g
.	.	.	2c\	.
=27	=27	=27	=27	=27
1D	2r	2.F/	2r	2a/
.	2F/	.	1d	1f
.	.	4G/	.	.
2r	2D/	4A/	.	.
.	.	4B\	.	.
2AA/	2E/	2c\	2c\	2e/
=28	=28	=28	=28	=28
1D	2D/	2A/	1d	1f
.	2F/	1d	.	.
1E	2E/	.	1G	1g
.	2C/	2c\	.	.
=29	=29	=29	=29	=29
1D	1F	1d	2r	2f/
.	.	.	2d\	2.a/
1E	2E/	1G	2B\	.
.	.	.	.	4g/
.	2C/	.	2c\	[2g/
=30	=30	=30	=30	=30
0D	1.F	0A	[0dl	2g/]
.	.	.	.	4f#i/
.	.	.	.	4e/
.	.	.	.	1f#i
.	2D/	.	.	.
=31	=31	=31	=31	=31
0GGl	0Dl	0Gl	0d]	0gl
!!LO:LB:i:g=z
=32||	=32||	=32||	=32||	=32||
*>B	*>B	*>B	*>B	*>B
*clefF4	*clefGv2	*clefGv2	*clefGv2	*clefG2
*k[]	*k[]	*k[]	*k[]	*k[]
*M2/1	*M2/1	*M2/1	*M2/1	*M2/1
*met(C|)	*met(C|)	*met(C|)	*met(C|)	*met(C|)
!!section: Christe
!!!OMD: Christe
2.GG/	2.D/	[0G	0r	0r
4AA/	4C/	.	.	.
2BB/	2D/	.	.	.
2C/	2E/	.	.	.
=33	=33	=33	=33	=33
2BB/	2D/	0G]	0r	0r
2.C/	1E	.	.	.
4D\	.	.	.	.
2E\	[2C/	.	.	.
=34	=34	=34	=34	=34
1AA	2C/]	[0A	2.c\	0r
.	1c	.	.	.
.	.	.	4d\	.
2r	.	.	2e\	.
2D\	2d\	.	2f\	.
=35	=35	=35	=35	=35
2C/	2e\	0A]	2e\	0r
2.D\	2.d\	.	2.f\	.
4E\	4c\	.	4g\	.
2F\	2A/	.	2a\	.
=36	=36	=36	=36	=36
2G\	0B	[0G	2d\	1r
2E\	.	.	2.e\	.
[1E	.	.	.	2.g/
.	.	.	4d\	.
.	.	.	4e\	.
.	.	.	4f\	4a/
=37	=37	=37	=37	=37
0E]	0r	0G_	2g\	2b\
.	.	.	2e\	2cc\
.	.	.	2r	2b\
.	.	.	[2e\	[2cc\
=38	=38	=38	=38	=38
1C	0r	0G_	2e\]	4cc\]
.	.	.	.	4dd\
.	.	.	2c\	2ee\
2BB/	.	.	2d\	4dd\
.	.	.	.	4cc\
2GG/	.	.	[2g\	4b\
.	.	.	.	4a/
=39	=39	=39	=39	=39
1C	0r	0G]	4g\]	2g/
.	.	.	4f\	.
.	.	.	2e\	1cc
1GG	.	.	1d	.
.	.	.	.	2b\
=40	=40	=40	=40	=40
0r	1e	0A	1c	[0cc
.	[1c	.	[1e	.
=41	=41	=41	=41	=41
2.AA/	2c\]	0c	1e]	0cc]
.	1A	.	.	.
4GG/	.	.	.	.
4AA/	.	.	2r	.
4BB/	.	.	.	.
[2C/	4G/	.	[2e\	.
.	4F/	.	.	.
=42	=42	=42	=42	=42
2C/]	1E	0G	2e\]	0r
4BB/	.	.	4d\	.
4AA/	.	.	4c\	.
1BB	2r	.	1d	.
.	2D/	.	.	.
=43	=43	=43	=43	=43
0AA	2E/	[0A	4c\	0cc
.	.	.	4d\	.
.	2.C/	.	4e\	.
.	.	.	4f\	.
.	.	.	2e\	.
.	4D/	.	.	.
.	2E/	.	[2a\	.
=44	=44	=44	=44	=44
0D	2F/	0A]	4a\]	0dd
.	.	.	4g\	.
.	2D/	.	1g	.
.	1D	.	.	.
.	.	.	2f#i\	.
=45	=45	=45	=45	=45
0GG	2r	0G	2g\	1.b
.	2.G/	.	1d	.
.	4F/	.	.	.
.	2E/	.	2e\	2g/
=46	=46	=46	=46	=46
0r	2D/	0r	2f\	2a/
.	2G/	.	1e	2b\
.	2A/	.	.	2cc\
.	2D/	.	2d\	[2b\
=47	=47	=47	=47	=47
0r	2E/	0r	2c\	4b\]
.	.	.	.	4a/
.	2F/	.	2A/	1a
.	1E	.	1B	.
.	.	.	.	2g#i/
=48	=48	=48	=48	=48
0D	1r	0F	1A	0a
.	1A	.	1d	.
=49	=49	=49	=49	=49
1E	1G	1G	1B	0r
1C	[1E	[1A	1c	.
=50	=50	=50	=50	=50
0BB	2E/]	2A/]	0d	0b
.	4D/	4G#i/	.	.
.	4C/	4F#i/	.	.
.	1D	1G#i	.	.
=51	=51	=51	=51	=51
1AA	0E	0A	2c\	[0cc
.	.	.	1e	.
[1A	.	.	.	.
.	.	.	2f\	.
=52	=52	=52	=52	=52
1A]	2r	0r	2e\	1cc]
.	2c\	.	2f\	.
1G	2d\	.	2g\	1b
.	2B\	.	[2e\	.
=53	=53	=53	=53	=53
0F	4c\	0r	2e\]	0a
.	4B\	.	.	.
.	4A/	.	4d\	.
.	4G/	.	4c\	.
.	1A	.	1d	.
=54	=54	=54	=54	=54
1E	0r	[0c	0e	1g
1C	.	.	.	2r
.	.	.	.	[2cc\
=55	=55	=55	=55	=55
0F	0r	0c]	0A	4cc\]
.	.	.	.	4b\
.	.	.	.	2.a/
.	.	.	.	4g/
.	.	.	.	4f/
.	.	.	.	4e/
=56	=56	=56	=56	=56
0G	0r	0B	0d	2d/
.	.	.	.	2.dd\
.	.	.	.	4cc\
.	.	.	.	4b\
.	.	.	.	4a/
=57	=57	=57	=57	=57
1F	0r	0A	1r	4cc\
.	.	.	.	4b\
.	.	.	.	4a/
.	.	.	.	4g/
1D	.	.	1d	4f/
.	.	.	.	4e/
.	.	.	.	2f/
=58	=58	=58	=58	=58
1E	0E	0G	1B	1g
1C	.	.	1c	1e
=59	=59	=59	=59	=59
0BB	0G	0r	1d	0d
.	.	.	1B	.
=60	=60	=60	=60	=60
0AA	1C	0A	1e	1c
.	1E	.	[1c	1r
=61	=61	=61	=61	=61
1r	1.A	1F	2c\]	1.cc
.	.	.	2d\	.
1AA	.	1E	1e	.
.	2G/	.	.	2b\
=62	=62	=62	=62	=62
1D	2F/	1F	1A	1a
.	2E/	.	.	.
1BB	[1D	[1G	1B	1g
=63	=63	=63	=63	=63
0AA	2D/]	2G/]	0c	0a
.	4C/	4F#i/	.	.
.	4BB/	4E/	.	.
.	1C	1F#i	.	.
=64	=64	=64	=64	=64
2.GG/	2.D/	[0Gl	1B	1d
8AA/L	8C/L	.	.	.
8BB/J	8D/J	.	.	.
2C/	2E/	.	2r	2r
2BB/	2D/	.	2B\	2d/
=65	=65	=65	=65	=65
2C/	2r	0G_	2e\	2c/
2GG/	2G/	.	2d\	2d/
1C	2E/	.	1c	1e
.	2C/	.	.	.
=66	=66	=66	=66	=66
0GGl	0Dl	0G]	0Bl	0dl
!!LO:LB:i:g=z
=67||	=67||	=67||	=67||	=67||
*>C	*>C	*>C	*>C	*>C
*clefF4	*clefGv2	*clefGv2	*clefGv2	*clefG2
*k[]	*k[]	*k[]	*k[]	*k[]
*M2/1	*M2/1	*M2/1	*M2/1	*M2/1
*met(C|)	*met(C|)	*met(C|)	*met(C|)	*met(C|)
!!section: Kyrie II
!!!OMD: Kyrie II
0G	[0B	[0G	0d	0g
=68	=68	=68	=68	=68
0E	1B]	0G]	0g	1b
.	1E	.	.	1cc
=69	=69	=69	=69	=69
0D	0F	0A	0f	0dd
=70	=70	=70	=70	=70
0C	[0G	0c	1e	0ee
.	.	.	[1g	.
=71	=71	=71	=71	=71
0G	0G]	0d	2g\]	1dd
.	.	.	4f\	.
.	.	.	4e\	.
.	.	.	2d\	[1b
.	.	.	[2g\	.
=72	=72	=72	=72	=72
0A	0r	0c	2g\]	2b\]
.	.	.	4f#i\	4a/
.	.	.	4e\	4g/
.	.	.	1f#i	1a
=73	=73	=73	=73	=73
0G	0d	0B	0g	1b
.	.	.	.	1r
=74	=74	=74	=74	=74
1F	1f	0A	2r	1.cc
.	.	.	2.c\	.
1r	2.e\	.	.	.
.	.	.	4d\	.
.	.	.	2e\	2b\
.	8d\L	.	.	.
.	8c\J	.	.	.
=75	=75	=75	=75	=75
1F	2d\	0r	4f\	1a
.	.	.	4e\	.
.	2A/	.	4d\	.
.	.	.	4c\	.
2E\	4c\	.	2e\	2g/
.	4B\	.	.	.
[2F\	4A/	.	[2d\	[2a/
.	4G/	.	.	.
=76	=76	=76	=76	=76
4F\]	2F/	0r	2d\]	4a/]
4E\	.	.	.	4g/
4D\	1G	.	2.c\	4f/
4C/	.	.	.	4e/
1D	.	.	.	1f
.	.	.	4B\	.
.	2F/	.	4B\	.
.	.	.	8A/L	.
.	.	.	8B/J	.
=77	=77	=77	=77	=77
[0C	0G	1.c	1c	0e
.	.	.	1r	.
.	.	2B\	.	.
=78	=78	=78	=78	=78
0C_	0E	1A	2.c\	0r
.	.	.	4d\	.
.	.	2G/	2.e\	.
.	.	[2A/	.	.
.	.	.	4d\	.
=79	=79	=79	=79	=79
0C]	[0c	2A/]	4e\	1r
.	.	.	4c\	.
.	.	4G/	1f	.
.	.	4F/	.	.
.	.	1G	.	1g
.	.	.	2e\	.
=80	=80	=80	=80	=80
1r	0c]	0F	0f	[0a
[1F	.	.	.	.
=81	=81	=81	=81	=81
1F]	1A	0r	1c	0a]
1D	1d	.	1f	.
=82	=82	=82	=82	=82
1E	1B	0r	1e	1g
1F	[1A	.	1c	[1a
=83	=83	=83	=83	=83
0D	1A]	0F	0d	2a/]
.	.	.	.	2g/
.	1B	.	.	2.f/
.	.	.	.	8e/L
.	.	.	.	8d/J
=84	=84	=84	=84	=84
1C	1c	0G	1r	1e
1BB	1r	.	1d	1b
=85	=85	=85	=85	=85
0AA	1.C	1A	1c	1cc
.	.	[1c	[1e	1a
.	2D/	.	.	.
=86	=86	=86	=86	=86
1r	1E	1c]	2e\]	1g
.	.	.	2f\	.
[1GG	1D	[1d	[1g	[1b
=87	=87	=87	=87	=87
1GG]	1G	1d]	1g]	2b\]
.	.	.	.	2a/
1AA	1C	[1c	[1e	[1a
=88	=88	=88	=88	=88
0E	0r	2c\]	0e]	1a]
.	.	4B\	.	.
.	.	4A/	.	.
.	.	1B	.	1g#i
=89	=89	=89	=89	=89
2.F\	2r	[0A	2r	0a
.	2.F/	.	2c\	.
4E\	.	.	.	.
2D\	.	.	2.f\	.
.	4G/	.	.	.
2C/	2A/	.	.	.
.	.	.	4e\	.
=90	=90	=90	=90	=90
2D\	2F/	0A]	2d\	2r
2.AA/	2E/	.	2c\	2.cc\
.	4C/	.	[1e	.
4BB/	4D/	.	.	4b\
4C/	4E/	.	.	2a/
4D\	4F/	.	.	.
=91	=91	=91	=91	=91
2E\	2G/	0r	1e]	2g/
2AA/	2A/	.	.	2.cc\
[1F	2F/	.	2A/	.
.	.	.	.	4b\
.	[2A/	.	[2c\	4a/
.	.	.	.	4g/
=92	=92	=92	=92	=92
2F\]	4A/]	0r	4c\]	2a/
.	4B\	.	4B\	.
2E\	2c\	.	4A/	1g
.	.	.	4G/	.
1D	1d	.	1A	.
.	.	.	.	2f#i/
=93	=93	=93	=93	=93
1.G	2.B\	1r	0G	[0g
.	4c\	.	.	.
.	2d\	[1B	.	.
2E\	[2e\	.	.	.
=94	=94	=94	=94	=94
0E	2e\]	1B]	1r	0g]
.	2B\	.	.	.
.	[1e	1G	1B	.
=95	=95	=95	=95	=95
[0AA	2e\]	2.A/	2c\	1r
.	2c\	.	2.c\	.
.	.	4G/	.	.
.	1c	2F/	.	[1cc
.	.	.	4d\	.
.	.	2E/	2e\	.
=96	=96	=96	=96	=96
1AA]	0r	1F	2c\	1cc]
.	.	.	2A/	.
[1GG	.	1G	1d	[1b
=97	=97	=97	=97	=97
1GG]	1G	0d	2G/	2b\]
.	.	.	1g	4a/
.	.	.	.	4g/
1D	1D	.	.	1a
.	.	.	2f\	.
=98	=98	=98	=98	=98
1G	2E/	1B	2g\	1g
.	2B\	.	2e\	.
[1F	2.c\	2.A/	2.f\	[1a
.	4B\	4B\	4e\	.
=99	=99	=99	=99	=99
2F\]	2A/	2c\	2f\	2a/]
2G\	1B	2B\	1d	2g/
1E	.	1G	.	[1g
.	2E/	.	2c\	.
=100	=100	=100	=100	=100
0D	1F	0A	[0dl	2g/]
.	.	.	.	4f#i/
.	.	.	.	4e/
.	1D	.	.	1f#i
=101	=101	=101	=101	=101
0GGl	0Dl	0Gl	0d]	0gl
==	==	==	==	==
*-	*-	*-	*-	*-
!!!RDF**kern: l=long note in original notation
!!!RDF**kern: i=editorial accidental
!!!RDF**kern: V=start of tuplet marker
!!!RDF**kern: Z=end of tuplet marker
!!!ENC:	Victoria Chang 2011/04/27
!!!END:	2011/04/27/
!!!EED:	Jesse Rodin
!!!EEV:	2012/06/25/
!!attribution-level@Jos: 4 (questionable)
!!!ONB:	Translated from MusicXML and edited on 2012/06/25/ by Craig Sapp
!!muse2ps: T^@{OPR}^u^@{ONM}{. }@{OTL}^C^@{COA}?\n@{SCT}^i2I150v85,85,85,85,130Q16
